X:1
T:King of Kings
T:King of Kings
T:John Bunyan Herbert, circa 1915
T:Based on Psalm 136
T:Public Domain Courtesy of the Cyber Hymnal™
T:Public Domain Courtesy of the Cyber Hymnal™
C:John Bunyan Herbert, circa 1915
Z:Public Domain
Z:Courtesy of the Cyber Hymnal™
%%score ( 1 2 ) ( 3 4 )
L:1/8
Q:1/4=115
M:4/4
K:C
V:1 treble 
V:2 treble 
V:3 bass 
V:4 bass 
V:1
 [EG]2 | [Ec]2 (BA) [EG]2 [CE]2 | [CA]2 (GF) [CE]2 [CE]2 | [CG]2 ([B,F][CE]) [A,D]2 ([^CG][DF]) | %4
w: 1.~O|thank the * Lord, the|Lord of * love; O|thank the * God all *|
w: 2.~Give|thanks to * God, for|good is * He, Thanks|to the * God of *|
w: 3.~Who|thought on * us a-|midst our * woes, And|res- cued * us from *|
w: 4.~O|praise the * Lord, for|He is * kind, Give|thanks to * Him with *|
 [CE]2 [B,D]2 [CE]2 [EG]2 | [Ec]2 (BA) [EG]2 [CE]2 | [CA]2 (GF) [CE]2 [CE]2 | %7
w: gods a- bove; O|thank the * might- y|King of * kings, Whose|
w: gods give ye; Thanks|give the * Lord of|Lords un- * to, Who|
w: all our foes; Who|dai- ly * feeds each|liv- ing * thing; O|
w: heart and mind; His|mer- cy * flows an|end- less * stream, To|
 [CG]2 ([B,F][CE]) [A,D]2 ([^CE][DF]) | [CE]2 [B,D]2 C4 ||"^Refrain" c2 c2 c3 [EG] | %10
w: arm hath * done such *|wond- rous things||
w: on- ly * won- ders *|great can do.|King of kings for-|
w: thank the * heav’n’s Al- *|might- y King.||
w: all e- * ter- ni- *|ty the same.||
 [FA][EG][EG][FA] [EG]2 x | d2 d2 d3 [^FA] x | [GB][^FA][FA][GB] [FA]2 x | e2 e2 e3 [^GB] x | %14
w: ||||
w: ev- er and ev- er;|Lord of lords, for-|ev- er and ev- er,|King of kings for-|
w: ||||
w: ||||
 [Ac][^GB][GB][Ac] [GB]2 x | [Af]2 [Ae]2 [Ad]2 [Ac]2 | c4 (z2 F2) x2 | [Ec]6 |] %18
w: ||||
w: ev- er and ev- er;|King of kings and|Lord *|of|
w: ||||
w: ||||
V:2
 x2 | x2 F2 x4 | x2 C2 x4 | x8 | x8 | x2 E2 x4 | x2 C2 x4 | x8 | x4 C4 || x8 | x7 | x9 | x7 | x9 | %14
 x7 | x8 | G6 B4 | x6 |] %18
V:3
 [C,C]2 | [C,G,]2 (A,B,) [C,C]2 [C,G,]2 | [C,C]2 (B,A,) [C,G,]2 [C,G,]2 | [E,G,]2 G,2 F,2 A,2 | %4
 G,2 [G,,G,]2 [C,G,]2 [C,C]2 | [C,G,]2 (A,B,) [C,C]2 [C,G,]2 | [C,C]2 (B,A,) [C,G,]2 [C,G,]2 | %7
 [E,G,]2 G,2 F,2 ([E,G,][D,A,]) | G,2 [G,,F,]2 [C,E,]4 || C2 C2 z3 C, | C4- C3 | D2 D2 z3 x2 | %12
 D4- D3 | E2 E2 z3 x2 | E4- E3 | [D,D]2 [E,^C]2 [F,D]2 [^F,^D]2 | [G,E]4 [G,,D]4 x2 | [C,C]6 |] %18
V:4
 x2 | x2 C,2 x4 | x2 C,2 x4 | x2 (D,C,) F,2 (E,D,) | G,2 x6 | x2 C,2 x4 | x2 C,2 x4 | %7
 x2 (D,C,) F,2 x2 | G,2 x6 || x4 C4- | F,C,C,F, C,2 x | x4 (D4- D,) | G,D,D,G, D,2 x | %13
 x4 (E4- E,) | A,E,E,A, E,2 x | x8 | x10 | x6 |] %18

